build/images/Create_web/plane.svg

<svg width="35" height="30" viewBox="0 0 35 30" fill="none" xmlns="http://www.w3.org/2000/svg">
<path d="M13.7334 19.2234L13.1544 27.3667C13.9828 27.3667 14.3415 27.0109 14.7717 26.5836L18.6553 22.8721L26.7023 28.7653C28.1782 29.5878 29.218 29.1546 29.6161 27.4075L34.8982 2.65671L34.8996 2.65525C35.3678 0.47358 34.1107 -0.379545 32.6728 0.155663L1.62484 12.0425C-0.494116 12.865 -0.462032 14.0463 1.26463 14.5815L9.20234 17.0505L27.64 5.51358C28.5078 4.939 29.2967 5.25691 28.6478 5.8315L13.7334 19.2234Z" fill="#EF0006"/>
</svg>

<svg width="35" height="30" fill="none" xmlns="http://www.w3.org/2000/svg"><path d="M13.733 19.223l-.579 8.144c.829 0 1.188-.356 1.618-.783l3.883-3.712 8.047 5.893c1.476.823 2.516.39 2.914-1.358l5.282-24.75.002-.002c.468-2.181-.79-3.035-2.227-2.5L1.625 12.043c-2.12.823-2.087 2.004-.36 2.54l7.937 2.468L27.64 5.514c.868-.575 1.657-.257 1.008.317L13.733 19.224z" fill="#EF0006"/></svg>
